X: 42855
T: Wild Irishman, The
R: reel
M: 4/4
K: Dmajor
|:d2fd gefe|dfed cdec|d2fd gefd|g2fe dcBc|
d2fd gefe|dfed cdeg|~f3d ~g3e|cdec dcdf:|
|:edcB ABcd|eA~A2 eAfA|edcB A2de|fgfe dcdf|
edcB ABcd|eA (3AAA eAfA|edcB ~A3e|fgfe d3c:|

